X: 7617
T: Coilsfield House
R: barndance
M: 4/4
K: Dmajor
V:1
|:de|f2 A2 d2 F2|D6 ef|g3e f3d|cee2 A3g|
V:2
|:FA|d2 FE F2 de|F2 A2 d2 A2|B3c d3F|EGBA GFGA|
V:1
gfed dcBA|d4 B2 G2|F2 d2 E2 c>c|d4 D2:|
V:2
BAGF BAGE|F2 EF G2 d2|de f2 g2 ag|g2 e2 f2:|
V:1
|:fg|a4 a2 fg/a/|b4 e2 fg|a2 d2 c2 d2|edcB A2 g>g|
V:2
DE|F2 D2 F2 DE/F/|G2 AB cBAG|FE F2 AG F2|G2 E2 FABc|
V:1
f2 d2 A2 F2|G2 AB E2 AG|F2 d2 E2 cc|d4 D2:|
V:2
dc/B/ AG FE D2|E2 FG AB c2|defa gfeg|f3e f2:|

